X:603
T:Polska efter J.C. Blomgren 
T:(SvL Skåne nr. 468)
R:Polska
Z:Patrik Månsson, 3/10 2008
O:Hässlunda, Skåne
S:efter Johan Christian Blomgren
B:Svenska Låtar Skåne
N:Finns även i [[!Omtyckta Skånska Allspelslåtar]]
M:3/4
L:1/16
K:Am
|: A2B2 c2dc B2G2 | c2cd e2f2 e2d2 | cdef g2fg agfe | defd e4 E4 :|
|: e2fe d2cd e4 | c2Bc dcBA ^G2E2 | A^GAB cBcd e2c2 | B2A^G A4 A,4 :|
(:musicend:)

En annan variant efter Johan Eric Blomgren:

(:music:)
